!! 00000] TT[WS
!!!OTL: Ku Lingding
!!!ARE: Asia, China,ÿShanxi Linxian
!! Ethnic Group: Han
!! WI, 159 (1)
!!!SCT: J0194
!!!YEM: Copyright 1995, estate of Helmut Schaffrath.
**kern
*ICvox
*Ivox
*M2/4
*k[f#]
*G:
{8.dd
16ee
8dd
16a
16b
=1
4g
8f#
8e
=2
8.a
16b
8a
16e
16f#
=3
2d}
=4
{8.dd
16ee
8dd
8cc
=5
8b
16a
16b
8a
8d
=6
8.a
16b
8a
16e
16f#
=7
2d}
=8
{8f#
8b
4a
=9
8.dd
16ee
8dd
8cc
=10
8b
16a
16b
8a
8d
=11
8f#
8b
8a
8g
=12
8f#
8e
8d
16e
16g
=13
2d}
==
!!!AGN: Xiaodiao. Qingge, Aisu
!!!ONB: ESAC (Essen Associative Code) Database: CHINA
!!!AMT: simple duple
!!!AIN: vox
!!!EED: Helmut Schaffrath
!!!EEV: 1.0
*-
